svgs/duotone/book-bible.svg

<svg xmlns="http://www.w3.org/2000/svg" viewBox="0 0 448 512"><!--! Font Awesome Pro 6.0.0-alpha3 by @fontawesome - https://fontawesome.com License - https://fontawesome.com/license (Commercial License) --><defs><style>.fa-secondary{opacity:.4}</style></defs><path class="fa-primary" d="M96 384h328c13.25 0 24-10.75 24-24V32c0-17.67-14.33-32-32-32H96C42.98 0 0 42.98 0 96v320c0 53.02 42.98 96 96 96h328c13.25 0 24-10.75 24-24v-16c0-13.26-10.75-24-24-24H96c-17.67 0-32-14.33-32-32C64 398.3 78.33 384 96 384zM144 144c0-8.875 7.125-15.1 16-15.1L208 128V80c0-8.875 7.125-15.1 16-15.1l32 .0013c8.875 0 16 7.12 16 15.99V128L320 128c8.875 0 16 7.121 16 15.1v32c0 8.875-7.125 16-16 16L272 192v112c0 8.875-7.125 16-16 16l-32-.0004c-8.875 0-16-7.127-16-16V192L160 192c-8.875 0-16-7.128-16-16V144z"/><path class="fa-secondary" d="M416 384v64H96c-17.67 0-32-14.33-32-32c0-17.67 14.33-32 32-32H416z"/></svg>

<svg xmlns="http://www.w3.org/2000/svg" viewBox="0 0 448 512"><!-- Font Awesome Pro 6.0.0-alpha2 by @fontawesome - https://fontawesome.com License - https://fontawesome.com/license (Commercial License) --><defs><style>.fa-secondary{opacity:.4}</style></defs><path d="M416 384V448H96C78.326 448 64 433.672 64 416C64 398.326 78.326 384 96 384H416Z" class="fa-secondary"/><path d="M96 384H424C437.254 384 448 373.254 448 360V32C448 14.326 433.674 0 416 0H96C42.98 0 0 42.98 0 96V416C0 469.02 42.98 512 96 512H424C437.254 512 448 501.254 448 488V472C448 458.744 437.254 448 424 448H96C78.326 448 64 433.672 64 416C64 398.326 78.326 384 96 384ZM144 144C144 135.125 151.125 128 160 128H208V80C208 71.125 215.125 64 224 64H256C264.875 64 272 71.125 272 80V128H320C328.875 128 336 135.125 336 144V176C336 184.875 328.875 192 320 192H272V304C272 312.875 264.875 320 256 320H224C215.125 320 208 312.875 208 304V192H160C151.125 192 144 184.875 144 176V144Z" class="fa-primary"/></svg>
